assets/security-color/SecurityColor11.svg

<svg xmlns="http://www.w3.org/2000/svg" data-name="Layer 3" viewBox="0 0 128 128"><path fill="#62caef" d="M89.468 34.11a9.942 9.942 0 01-9.94 9.941H39.417a9.942 9.942 0 01-9.94-9.941 9.941 9.941 0 019.94-9.94h40.111a9.94 9.94 0 019.94 9.94zM89.856 59.564a9.94 9.94 0 01-9.94 9.941H39.8a9.942 9.942 0 01-9.94-9.941 9.94 9.94 0 019.94-9.94h40.116a9.938 9.938 0 019.94 9.94zM74.74 94.959H39.03a9.942 9.942 0 01-9.94-9.94 9.942 9.942 0 019.94-9.941h40.111s9.962.277 9.962 6.566v13.315H74.74"/><path fill="#fdc028" d="M98.91 83.224v16.642a3.975 3.975 0 01-3.963 3.963H78.7a3.974 3.974 0 01-3.96-3.963V83.224z"/><circle cx="86.825" cy="91.15" r="2.711" fill="#fdfdfd"/><path fill="#231f20" d="M39.417 45.664h40.111a11.553 11.553 0 000-23.107H39.417a11.553 11.553 0 000 23.107zm0-19.881h40.111a8.327 8.327 0 010 16.655H39.417a8.327 8.327 0 010-16.655zM78.7 105.442h16.247a5.583 5.583 0 005.576-5.576V83.224a1.612 1.612 0 00-1.613-1.613h-3.239v-5.222a8.638 8.638 0 00-7.834-8.437 11.538 11.538 0 00-7.921-19.941H39.8a11.553 11.553 0 000 23.107h40.1a8.4 8.4 0 00-1.37 2.347h-39.5a11.553 11.553 0 000 23.107h34.1v3.294a5.581 5.581 0 005.57 5.576zm18.6-5.576a2.352 2.352 0 01-2.35 2.35H78.7a2.351 2.351 0 01-2.347-2.35V84.837H97.3zM81.2 76.692h.139c.241.006 5.369.221 6.342 4.919H81.2zm11.244-.3v5.222h-1.48c-.776-5.744-5.644-7.76-8.844-8.094a5.716 5.716 0 014.7-2.4 5.461 5.461 0 015.625 5.269zM31.478 59.564a8.335 8.335 0 018.322-8.326h40.116a8.327 8.327 0 010 16.655H39.8a8.337 8.337 0 01-8.322-8.329zm7.552 33.782a8.327 8.327 0 010-16.655h38.945v4.919H74.74a1.612 1.612 0 00-1.613 1.613v10.123z"/><path fill="#231f20" d="M86.825 86.366a4.772 4.772 0 00-1.613 9.267v3.045a1.613 1.613 0 103.226 0v-3.045a4.772 4.772 0 00-1.613-9.267zm0 3.226a1.557 1.557 0 11-1.556 1.556 1.558 1.558 0 011.556-1.555z"/><circle cx="77.603" cy="34.11" r="3.659" fill="#231f20"/><circle cx="78.398" cy="59.566" r="3.659" fill="#231f20"/></svg>

<svg id="Layer_3" data-name="Layer 3" xmlns="http://www.w3.org/2000/svg" viewBox="0 0 128 128"><title>Artboard 107</title><path d="M89.468,34.11a9.942,9.942,0,0,1-9.94,9.941H39.417a9.942,9.942,0,0,1-9.94-9.941h0a9.941,9.941,0,0,1,9.94-9.94H79.528a9.94,9.94,0,0,1,9.94,9.94Z" style="fill:#62caef"/><path d="M89.856,59.564a9.94,9.94,0,0,1-9.94,9.941H39.8a9.942,9.942,0,0,1-9.94-9.941h0a9.94,9.94,0,0,1,9.94-9.94H79.916a9.938,9.938,0,0,1,9.94,9.94Z" style="fill:#62caef"/><path d="M74.74,94.959H39.03a9.942,9.942,0,0,1-9.94-9.94h0a9.942,9.942,0,0,1,9.94-9.941H79.141s9.962.277,9.962,6.566V94.959H74.74" style="fill:#62caef"/><path d="M98.91,83.224V99.866a3.975,3.975,0,0,1-3.963,3.963H78.7a3.974,3.974,0,0,1-3.96-3.963V83.224Z" style="fill:#fdc028"/><circle cx="86.825" cy="91.15" r="2.711" style="fill:#fdfdfd"/><path d="M39.417,45.664H79.528a11.553,11.553,0,0,0,0-23.107H39.417a11.553,11.553,0,0,0,0,23.107Zm0-19.881H79.528a8.327,8.327,0,0,1,0,16.655H39.417a8.327,8.327,0,0,1,0-16.655Z" style="fill:#231f20"/><path d="M78.7,105.442H94.947a5.583,5.583,0,0,0,5.576-5.576V83.224a1.612,1.612,0,0,0-1.613-1.613H95.671V76.389a8.638,8.638,0,0,0-7.834-8.437,11.538,11.538,0,0,0-7.921-19.941H39.8a11.553,11.553,0,0,0,0,23.107H79.9a8.4,8.4,0,0,0-1.37,2.347H39.03a11.553,11.553,0,0,0,0,23.107h34.1v3.294A5.581,5.581,0,0,0,78.7,105.442Zm18.6-5.576a2.352,2.352,0,0,1-2.35,2.35H78.7a2.351,2.351,0,0,1-2.347-2.35V84.837H97.3ZM81.2,76.692h.139c.241.006,5.369.221,6.342,4.919H81.2Zm11.244-.3v5.222H90.964c-.776-5.744-5.644-7.76-8.844-8.094a5.716,5.716,0,0,1,4.7-2.4A5.461,5.461,0,0,1,92.445,76.389ZM31.478,59.564A8.335,8.335,0,0,1,39.8,51.238H79.916a8.327,8.327,0,0,1,0,16.655H39.8A8.337,8.337,0,0,1,31.478,59.564ZM39.03,93.346a8.327,8.327,0,0,1,0-16.655H77.975v4.919H74.74a1.612,1.612,0,0,0-1.613,1.613V93.346Z" style="fill:#231f20"/><path d="M86.825,86.366a4.772,4.772,0,0,0-1.613,9.267v3.045a1.613,1.613,0,1,0,3.226,0V95.633a4.772,4.772,0,0,0-1.613-9.267Zm0,3.226a1.557,1.557,0,1,1-1.556,1.556A1.558,1.558,0,0,1,86.825,89.593Z" style="fill:#231f20"/><circle cx="77.603" cy="34.11" r="3.659" style="fill:#231f20"/><circle cx="78.398" cy="59.566" r="3.659" style="fill:#231f20"/></svg>
